src/16/actions/document-export.svg

<svg xmlns="http://www.w3.org/2000/svg" viewBox="0 0 16 16">
  <defs id="defs3051">
    <style type="text/css" id="current-color-scheme">
      .ColorScheme-Text {
        color:#5d656b;
      }
      </style>
  </defs>
 <path style="fill:currentColor;fill-opacity:1;stroke:none" 
       d="M 3 2 L 3 11 L 3 12 L 5 12 L 7.0859375 12 L 6.4140625 12.671875 L 5.4648438 13.621094 L 6.171875 14.328125 L 7.1210938 13.378906 L 9 11.5 L 7.1210938 9.6210938 L 6.171875 8.671875 L 5.4648438 9.3789062 L 6.4140625 10.328125 L 7.0859375 11 L 5 11 L 4 11 L 4 3 L 12 3 L 12 13 L 9 13 L 9 14 L 13 14 L 13 2 L 3 2 z "
     class="ColorScheme-Text"
     />
</svg>

<svg xmlns="http://www.w3.org/2000/svg" viewBox="0 0 16 16"><path d="M3 2v10h4.086l-.672.672-.95.95.708.706.95-.95L9 11.5 7.121 9.621l-.95-.95-.706.708.95.95.67.671H4V3h8v10H9v1h4V2H3z" fill="currentColor" color="#5d656b"/></svg>
